package/converter/svg/duotone/table-layout.svg

<svg xmlns="http://www.w3.org/2000/svg" viewBox="0 0 512 512"><!-- Font Awesome Pro 6.0.0-alpha2 by @fontawesome - https://fontawesome.com License - https://fontawesome.com/license (Commercial License) --><defs><style>.fa-secondary{opacity:.4}</style></defs><path d="M192 224V416H128V224H64V160H448V224H192Z" class="fa-secondary"/><path d="M448 32H64C28.654 32 0 60.652 0 96V416C0 451.346 28.654 480 64 480H448C483.346 480 512 451.346 512 416V96C512 60.652 483.346 32 448 32ZM448 416H64V96H448V416Z" class="fa-primary"/></svg>

<svg xmlns="http://www.w3.org/2000/svg" viewBox="0 0 512 512"><!--! Font Awesome Pro 6.6.0 by @fontawesome - https://fontawesome.com License - https://fontawesome.com/license (Commercial License) Copyright 2024 Fonticons, Inc. --><defs><style>.fa-secondary{opacity:.4}</style></defs><path class="fa-secondary" d="M64 160l384 0 0 64-256 0 0 192-64 0 0-192-64 0 0-64z"/><path class="fa-primary" d="M64 32C28.7 32 0 60.7 0 96L0 416c0 35.3 28.7 64 64 64l384 0c35.3 0 64-28.7 64-64l0-320c0-35.3-28.7-64-64-64L64 32zM448 96l0 320L64 416 64 96l384 0z"/></svg>
